;FLAVOR:Marlin
;TIME:2147
;Filament used: 1.33825m
;Layer height: 0.2
;MINX:72.617
;MINY:72.647
;MINZ:0.24
;MAXX:132.303
;MAXY:129.853
;MAXZ:19.09
;TARGET_MACHINE.NAME:Creality Ender-3 S1
;Generated with Cura_SteamEngine 5.10.2
; Ender 3 S1 Start G-code
; M413 S0 ; Disable power loss recovery
G92 E0 ; Reset Extruder

; Prep surfaces before auto home for better accuracy
M140 S60
M104 S200

G28 ; Home all axes
G1 Z10.0 F3000 ; Move Z Axis up little to prevent scratching of Heat Bed
G1 X0 Y0

M190 S60
M109 S200

G1 X0.1 Y20 Z0.3 F5000.0 ; Move to start position
G1 X0.1 Y200.0 Z0.3 F1500.0 E15 ; Draw the first line
G1 X0.4 Y200.0 Z0.3 F5000.0 ; Move to side a little
G1 X0.4 Y20 Z0.3 F1500.0 E30 ; Draw the second line
G92 E0 ; Reset Extruder
G1 Z2.0 F3000 ; Move Z Axis up little to prevent scratching of Heat Bed
G1 X5 Y20 Z0.3 F5000.0 ; Move over to prevent blob squish

M82 ;absolute extrusion mode
G92 E0
G92 E0
G1 F2400 E-0.8
;LAYER_COUNT:90
;LAYER:-6
M107
M204 S2000
G0 F9000 X82.65 Y78.769 Z0.24
M204 S500
;TYPE:SUPPORT-INTERFACE
G1 F2400 E0
G1 F1350 X83.524 Y77.918 E0.09738
G1 X84.335 Y77.244 E0.18155
G1 X85.038 Y76.728 E0.25116
G1 X86.031 Y76.104 E0.34478
G1 X87.033 Y75.586 E0.43482
G1 X87.941 Y75.19 E0.51389
G1 X89.278 Y74.739 E0.62653
G1 X91.009 Y74.256 E0.76998
G1 X92.142 Y73.984 E0.86299
G1 X92.898 Y73.852 E0.92425
G1 X93.221 Y73.814 E0.95021
G1 X94.241 Y73.724 E1.03195
G1 X95.276 Y73.709 E1.11458
G1 X96.153 Y73.755 E1.18468
G1 X97.088 Y73.867 E1.25985
G1 X97.101 Y73.855 E1.26126
G1 X97.471 Y73.924 E1.2913
G1 X98.925 Y74.251 E1.41027
G1 X99.541 Y74.362 E1.46023
G1 X100.243 Y74.396 E1.51633
G1 X101.053 Y74.326 E1.58123
G1 X102.187 Y74.146 E1.67289
G1 X103.143 Y74.056 E1.74953
G1 X104.237 Y74.037 E1.83688
G1 X104.512 Y74.064 E1.85893
G1 X104.522 Y74.054 E1.86006
G1 X105.215 Y74.087 E1.91544
G1 X106.393 Y74.243 E2.0103
G1 X107.358 Y74.442 E2.08895
G1 X108.339 Y74.714 E2.17021
G1 X109.332 Y75.065 E2.25428
G1 X110.321 Y75.501 E2.34056
G1 X111.251 Y75.995 E2.42462
G1 X112.182 Y76.579 E2.51235
G1 X113.007 Y77.186 E2.59411
G1 X113.852 Y77.906 E2.68272
G1 X114.272 Y78.307 E2.72908
G1 X118.532 Y82.563 E3.20976
G1 X118.546 Y82.565 E3.21088
G1 X119.184 Y83.093 E3.27699
G1 X119.547 Y83.339 E3.31199
G1 X120.355 Y83.98 E3.39432
G1 X121.313 Y84.852 E3.49773
G1 X121.85 Y85.356 E3.55652
G1 X122.52 Y86.018 E3.6317
G1 X122.949 Y86.459 E3.68082
G1 X123.571 Y87.069 E3.75036
G1 X125.233 Y88.973 E3.9521
G1 X125.758 Y89.657 E4.02093
G1 X126.158 Y90.261 E4.07876
G1 X126.682 Y90.965 E4.14881
G1 X127.289 Y91.858 E4.235
G1 X127.724 Y92.599 E4.30359
G1 X128.223 Y93.602 E4.39302
G1 X128.604 Y94.531 E4.47317
G1 X128.993 Y95.722 E4.57318
G1 X128.979 Y95.739 E4.57494
G1 X129.227 Y96.757 E4.65858
G1 X129.375 Y97.629 E4.72918
G1 X129.509 Y99.004 E4.83946
G1 X129.637 Y99.661 E4.89289
G1 X129.764 Y100.09 E4.9286
G1 X130.123 Y101.107 E5.01469
G1 X130.665 Y102.957 E5.16858
G1 X130.932 Y104.042 E5.25777
G1 X131.107 Y105.078 E5.34164
G1 X131.212 Y106.129 E5.42595
G1 X131.235 Y107.212 E5.51242
G1 X131.204 Y108.032 E5.57792
G1 X131.181 Y108.311 E5.60027
G1 X131.08 Y109.147 E5.66749
G1 X130.88 Y110.215 E5.75422
G1 X130.705 Y110.925 E5.81259
G1 X130.165 Y112.851 E5.97226
G1 X129.812 Y113.926 E6.06258
G1 X129.447 Y114.831 E6.14048
G1 X128.944 Y115.836 E6.23019
G1 X128.406 Y116.749 E6.31478
G1 X127.897 Y117.49 E6.38654
G1 X127.235 Y118.328 E6.47179
G1 X126.466 Y119.167 E6.56264
G1 X125.078 Y120.555 E6.71933
G1 X124.39 Y121.192 E6.79417
G1 X123.429 Y121.962 E6.89247
G1 X122.519 Y122.584 E6.98046
G1 X121.615 Y123.102 E7.06362
G1 X120.775 Y123.518 E7.13845
G1 X119.767 Y123.927 E7.22528
G1 X118.784 Y124.244 E7.30773
G1 X116.898 Y124.773 E7.46409
G1 X115.736 Y125.059 E7.55961
G1 X115.727 Y125.05 E7.56063
G1 X115.006 Y125.176 E7.61905
G1 X113.723 Y125.304 E7.72198
G1 X112.556 Y125.315 E7.81514
G1 X111.648 Y125.273 E7.88769
G1 X110.637 Y125.141 E7.96908
G1 X109.895 Y124.996 E8.02943
G1 X109.23 Y124.907 E8.08299
G1 X108.566 Y124.896 E8.136
G1 X107.877 Y124.976 E8.19137
G1 X107.221 Y125.135 E8.24525
G1 X106.58 Y125.378 E8.29997
G1 X105.761 Y125.84 E8.37503
G1 X105.599 Y125.951 E8.39071
G1 X104.692 Y126.488 E8.47484
G1 X103.698 Y126.987 E8.56363
G1 X102.692 Y127.395 E8.65028
G1 X101.581 Y127.748 E8.74334
G1 X99.842 Y128.237 E8.88753
G1 X98.657 Y128.527 E8.98492
G1 X98.647 Y128.517 E8.98605
G1 X97.924 Y128.644 E9.04464
G1 X97.594 Y128.686 E9.0712
G1 X96.557 Y128.772 E9.15426
G1 X95.478 Y128.783 E9.24039
G1 X94.581 Y128.733 E9.31211
G1 X93.243 Y128.563 E9.41977
G1 X93.229 Y128.547 E9.42147
G1 X92.566 Y128.417 E9.4754
G1 X91.604 Y128.162 E9.55484
G1 X89.952 Y127.678 E9.69226
G1 X89.264 Y127.45 E9.75011
G1 X89.251 Y127.46 E9.75142
G1 X87.991 Y126.944 E9.86011
G1 X87.327 Y126.61 E9.91944
G1 X87.315 Y126.617 E9.92055
G1 X86.938 Y126.406 E9.95503
G1 X86.056 Y125.873 E10.0373
G1 X85.18 Y125.25 E10.1231
G1 X84.476 Y124.67 E10.19591
G1 X83.778 Y124.023 E10.27189
G1 X82.309 Y122.554 E10.43772
G1 X81.671 Y121.866 E10.51262
G1 X80.902 Y120.909 E10.61062
G1 X80.339 Y120.09 E10.68995
G1 X79.765 Y119.099 E10.78137
G1 X79.342 Y118.24 E10.8578
G1 X78.975 Y117.334 E10.93583
G1 X78.672 Y116.711 E10.99113
G1 X78.316 Y116.161 E11.04343
G1 X77.958 Y115.722 E11.08865
G1 X77.642 Y115.373 E11.12623
G1 X76.995 Y114.554 E11.20954
G1 X76.431 Y113.733 E11.28905
G1 X75.857 Y112.747 E11.38012
G1 X75.442 Y111.9 E11.45541
G1 X75.052 Y110.946 E11.53768
G1 X74.654 Y109.75 E11.6383
G1 X74.663 Y109.738 E11.6395
G1 X74.251 Y108.339 E11.75592
G1 X73.988 Y107.261 E11.84449
G1 X73.833 Y106.382 E11.91574
G1 X73.695 Y105.164 E12.01359
G1 X73.704 Y105.155 E12.0146
G1 X73.681 Y104.09 E12.09963
G1 X73.735 Y103.018 E12.18532
G1 X73.848 Y102.049 E12.26319
G1 X74.031 Y101.087 E12.34136
G1 X74.278 Y100.114 E12.42149
G1 X74.739 Y98.55 E12.55165
G1 X74.956 Y97.873 E12.60839
G1 X74.971 Y97.868 E12.60966
G1 X75.119 Y97.434 E12.64626
G1 X75.453 Y96.634 E12.71546
G1 X75.928 Y95.671 E12.80117
G1 X76.229 Y95.164 E12.84824
G1 X76.534 Y94.572 E12.9014
G1 X76.776 Y93.912 E12.95751
G1 X76.921 Y93.221 E13.01387
G1 X76.984 Y92.27 E13.08995
G1 X76.973 Y91.523 E13.14959
G1 X77.023 Y90.45 E13.23533
G1 X77.14 Y89.47 E13.31412
G1 X77.319 Y88.53 E13.3905
G1 X77.519 Y87.729 E13.4564
G1 X78.034 Y85.965 E13.60309
G1 X78.395 Y84.906 E13.6924
G1 X78.749 Y84.054 E13.76605
G1 X79.103 Y83.333 E13.83016
G1 X79.096 Y83.321 E13.83127
G1 X79.294 Y82.966 E13.86372
G1 X79.76 Y82.194 E13.9357
G1 X80.361 Y81.329 E14.01978
G1 X81.106 Y80.408 E14.11434
G1 X82.65 Y78.769 E14.29408
M204 S2000
G0 F9000 X83.26 Y78.735
M204 S500
G1 F1350 X124.796 Y120.27 E18.98297
M204 S2000
G1 F2400 E18.18297
G0 F9000 X125.928 Y119.14
M204 S500
G1 F2400 E18.98297
G1 F1350 X84.454 Y77.666 E23.66491
M204 S2000
G1 F2400 E22.86491
G0 F9000 X85.784 Y76.733
M204 S500
G1 F2400 E23.66491
G1 F1350 X127.014 Y117.963 E28.31931
M204 S2000
G1 F2400 E27.51931
G0 F9000 X127.979 Y116.666
M204 S500
G1 F2400 E28.31931
G1 F1350 X87.244 Y75.931 E32.91783
M204 S2000
G1 F2400 E32.11783
G0 F9000 X88.874 Y75.298
M204 S500
G1 F2400 E32.91783
G1 F1350 X128.802 Y115.226 E37.42525
M204 S2000
G1 F2400 E36.62525
G0 F9000 X129.484 Y113.645
M204 S500
G1 F2400 E37.42525
G1 F1350 X90.619 Y74.78 E41.81266
M204 S2000
G1 F2400 E41.01266
G0 F9000 X92.44 Y74.338
M204 S500
G1 F2400 E41.81266
G1 F1350 X130.013 Y111.911 E46.05423
M204 S2000
G1 F2400 E45.25423
G0 F9000 X130.49 Y110.126
M204 S500
G1 F2400 E46.05423
G1 F1350 X94.486 Y74.121 E50.11873
M204 S2000
G1 F2400 E49.31873
G0 F9000 X96.871 Y74.243
M204 S500
G1 F2400 E50.11873
G1 F1350 X130.792 Y108.165 E53.94808
M204 S2000
G1 F2400 E53.14808
G0 F9000 X130.787 Y105.897
M204 S500
G1 F2400 E53.94808
G1 F1350 X99.658 Y74.768 E57.46219
M204 S2000
G1 F2400 E56.66219
G0 F9000 X101.77 Y74.617
M204 S500
G1 F2400 E57.46219
G1 F1350 X130.301 Y103.148 E60.68302
M204 S2000
G1 F2400 E59.88302
G0 F9000 X129.28 Y99.865
M204 S500
G1 F2400 E60.68302
G1 F1350 X103.86 Y74.444 E63.5527
M204 S2000
G1 F2400 E62.7527
G0 F9000 X106.315 Y74.637
M204 S500
G1 F2400 E63.5527
G1 F1350 X128.901 Y97.222 E66.10235
M204 S2000
G1 F2400 E65.30235
G0 F9000 X127.963 Y94.022
M204 S500
G1 F2400 E66.10235
G1 F1350 X109.532 Y75.59 E68.18305
M204 S2000
G1 F2400 E67.38305
G0 F9000 X109.699 Y74.067
G0 X107.713 Y73.433
G0 X106.398 Y73.167
G0 X104.357 Y72.981
G0 X95.14 Y72.647
G0 X93.086 Y72.759
G0 X91.754 Y72.979
G0 X88.921 Y73.741
G0 X87.408 Y74.272
G0 X85.58 Y75.143
G0 X83.915 Y76.219
G0 X82.893 Y77.073
G0 X81.082 Y78.876
G0 X82.147 Y79.885
M204 S500
G1 F2400 E68.18305
G1 F1350 X123.586 Y121.323 E72.86099
M204 S2000
G1 F2400 E72.06099
G0 F9000 X122.267 Y122.267
M204 S500
G1 F2400 E72.86099
G1 F1350 X81.078 Y81.078 E77.51076
M204 S2000
G1 F2400 E76.71076
G0 F9000 X80.118 Y82.381
M204 S500
G1 F2400 E77.51076
G1 F1350 X120.797 Y123.06 E82.10296
M204 S2000
G1 F2400 E81.30296
G0 F9000 X119.173 Y123.698
M204 S500
G1 F2400 E82.10296
G1 F1350 X79.305 Y83.83 E86.6036
M204 S2000
G1 F2400 E85.8036
G0 F9000 X78.639 Y85.427
M204 S500
G1 F2400 E86.6036
G1 F1350 X117.421 Y124.21 E90.98171
M204 S2000
G1 F2400 E90.18171
G0 F9000 X115.613 Y124.664
M204 S500
G1 F2400 E90.98171
G1 F1350 X78.103 Y87.154 E95.21616
M204 S2000
G1 F2400 E94.41616
G0 F9000 X77.644 Y88.958
M204 S500
G1 F2400 E95.21616
G1 F1350 X113.591 Y124.905 E99.27417
M204 S2000
G1 F2400 E98.47417
G0 F9000 X111.239 Y124.816
M204 S500
G1 F2400 E99.27417
G1 F1350 X77.398 Y90.975 E103.09443
M204 S2000
G1 F2400 E102.29443
G0 F9000 X77.326 Y93.165
M204 S500
G1 F2400 E103.09443
G1 F1350 X108.659 Y124.498 E106.63157
M204 S2000
G1 F2400 E105.83157
G0 F9000 X106.775 Y124.876
M204 S500
G1 F2400 E106.63157
G1 F1350 X76.809 Y94.911 E110.01434
M204 S2000
G1 F2400 E109.21434
G0 F9000 X76.021 Y96.386
M204 S500
G1 F2400 E110.01434
G1 F1350 X105.299 Y125.663 E113.31943
M204 S2000
G1 F2400 E112.51943
G0 F9000 X103.84 Y126.467
M204 S500
G1 F2400 E113.31943
G1 F1350 X75.355 Y97.982 E116.53507
M204 S2000
G1 F2400 E115.73507
G0 F9000 X74.815 Y99.706
M204 S500
G1 F2400 E116.53507
G1 F1350 X102.231 Y127.121 E119.62996
M204 S2000
G1 F2400 E118.82996
G0 F9000 X100.487 Y127.64
M204 S500
G1 F2400 E119.62996
G1 F1350 X74.357 Y101.51 E122.57974
M204 S2000
G1 F2400 E121.77974
G0 F9000 X74.11 Y103.525
M204 S500
G1 F2400 E122.57974
G1 F1350 X98.691 Y128.107 E125.35472
M204 S2000
G1 F2400 E124.55472
G0 F9000 X96.681 Y128.36
M204 S500
G1 F2400 E125.35472
G1 F1350 X74.176 Y105.854 E127.89533
M204 S2000
G1 F2400 E127.09533
G0 F9000 X74.781 Y108.722
M204 S500
G1 F2400 E127.89533
G1 F1350 X94.361 Y128.302 E130.10569
M204 S2000
G1 F2400 E129.30569
G0 F9000 X91.515 Y127.719
M204 S500
G1 F2400 E130.10569
G1 F1350 X76.071 Y112.274 E131.8492
M204 S2000
G1 F2400 E131.0492
G0 F9000 X75.032 Y113.452
G0 X75.298 Y113.88
G0 X78.318 Y118.547
G0 X79.802 Y118.269
M204 S500
G1 F2400 E131.8492
G1 F1350 X88.067 Y126.534 E132.78223
M104 S200
M204 S2000
G1 F2400 E131.98223
G0 F300 X88.067 Y126.534 Z0.54
G0 F9000 X87.653 Y127.959
G0 X89.716 Y128.721
G0 X92.245 Y129.435
G0 X94.331 Y129.78
G0 X95.67 Y129.853
G0 X97.717 Y129.744
G0 X99.079 Y129.519
G0 X117.202 Y125.798
G0 X120.222 Y124.894
G0 X121.756 Y124.207
G0 X123.052 Y123.506
G0 X122.619 Y122.04
;TIME_ELAPSED:87.711009
;LAYER:-5
M204 S500
;TYPE:SUPPORT
G1 F2400 E132.78223
G1 F1350 X127.955 Y116.704 E133.53519
M204 S2000
G1 F2400 E132.73519
G0 F9000 X129.163 Y117.532
G0 X127.912 Y119.177
G0 X125.396 Y121.696
G0 X124.236 Y122.692
G0 X123.319 Y121.55
M204 S500
G1 F2400 E133.53519
G1 F1350 X124.136 Y120.888 E133.64012
G1 X124.812 Y120.26 E133.73218
G1 X126.178 Y118.895 E133.92487
G1 X126.928 Y118.076 E134.03568
G1 X127.576 Y117.257 E134.13988
G1 X128.063 Y116.546 E134.22587
G1 X128.596 Y115.647 E134.33016
G1 X129.057 Y114.722 E134.43328
G1 X129.426 Y113.819 E134.53061
G1 X119.72 Y123.525 E135.90024
G1 X118.677 Y123.86 E136.00954
G1 X117.692 Y124.138 E136.11167
G1 X130.052 Y111.778 E137.8558
G1 X130.301 Y110.896 E137.94724
G1 X130.494 Y110.127 E138.02635
G1 X130.54 Y109.876 E138.05181
G1 X115.778 Y124.639 E140.13496
G1 X114.802 Y124.799 E140.23365
G1 X114.142 Y124.86 E140.29978
G1 X130.793 Y108.209 E142.64942
G1 X130.838 Y107.198 E142.7504
G1 X130.827 Y106.761 E142.79402
G1 X112.671 Y124.917 E145.35602
G1 X111.715 Y124.872 E145.45152
G1 X111.347 Y124.826 E145.48852
G1 X130.742 Y105.432 E148.2253
G1 X130.713 Y105.133 E148.25527
G1 X130.555 Y104.204 E148.3493
G1 X110.134 Y124.626 E151.23099
G1 X109.228 Y124.505 E151.3222
G1 X108.843 Y124.502 E151.36061
G1 X130.279 Y103.066 E154.38547
G1 X129.961 Y101.97 E154.49933
G1 X107.2 Y124.731 E157.71116
G1 X107.058 Y124.765 E157.72573
G1 X106.368 Y125.036 E157.7997
G1 X105.539 Y125.51 E157.89498
G1 X105.243 Y125.707 E157.93046
G1 X104.373 Y126.21 E158.03073
G1 X104.242 Y126.275 E158.04532
G1 X129.623 Y100.894 E161.62686
G1 X129.397 Y100.25 E161.69496
G1 X129.269 Y99.834 E161.73839
G1 X101.858 Y127.245 E165.60637
G1 X101.483 Y127.364 E165.64563
G1 X99.873 Y127.815 E165.81246
G1 X129.072 Y98.617 E169.93269
G1 X128.981 Y97.696 E170.02503
G1 X128.923 Y97.351 E170.05994
G1 X98.067 Y128.208 E174.41412
G1 X97.564 Y128.287 E174.46493
G1 X96.485 Y128.375 E174.57295
G1 X128.683 Y96.177 E179.11643
G1 X128.6 Y95.826 E179.15242
G1 X128.361 Y95.085 E179.23011
G1 X95.082 Y128.364 E183.92614
G1 X94.64 Y128.339 E183.97031
G1 X93.801 Y128.23 E184.05473
G1 X127.989 Y94.043 E188.87896
G1 X127.526 Y93.091 E188.98458
G1 X92.603 Y128.014 E193.9126
G1 X91.824 Y127.81 E193.99295
G1 X91.49 Y127.713 E194.02765
G1 X126.943 Y92.26 E199.03045
G1 X126.779 Y91.806 E199.07862
G1 X126.454 Y91.335 E199.13572
G1 X90.396 Y127.393 E204.22389
G1 X90.085 Y127.301 E204.25625
G1 X89.325 Y127.049 E204.33614
G1 X125.854 Y90.521 E209.49071
G1 X125.43 Y89.888 E209.56673
G1 X125.274 Y89.687 E209.59212
G1 X88.313 Y126.648 E214.80772
G1 X87.364 Y126.182 E214.91321
G1 X124.646 Y88.9 E220.1741
G1 X124.214 Y88.413 E220.23906
G1 X123.988 Y88.144 E220.27411
G1 X86.47 Y125.662 E225.56831
G1 X85.632 Y125.086 E225.66977
G1 X123.324 Y87.394 E230.98852
G1 X123.069 Y87.128 E231.02529
G1 X122.614 Y86.69 E231.0883
G1 X84.848 Y124.456 E236.4175
G1 X84.631 Y124.275 E236.44569
G1 X84.107 Y123.783 E236.51741
G1 X121.913 Y85.976 E241.85232
G1 X121.192 Y85.283 E241.9521
G1 X83.397 Y123.078 E247.28538
G1 X82.69 Y122.371 E247.38515
G1 X120.45 Y84.611 E252.71349
G1 X120.133 Y84.318 E252.75657
G1 X119.686 Y83.961 E252.81365
G1 X82.007 Y121.64 E258.13056
G1 X81.372 Y120.861 E258.23084
G1 X118.877 Y83.355 E263.52327
G1 X118.104 Y82.714 E263.62347
G1 X80.789 Y120.029 E268.88902
G1 X80.48 Y119.167 E268.98039
G1 X80.326 Y119.271 E268.99893
G1 X80.256 Y119.148 E269.01305
G1 X117.402 Y82.002 E274.25476
G1 X116.695 Y81.295 E274.35452
G1 X79.77 Y118.219 E279.56497
G1 X79.36 Y117.216 E279.67309
G1 X115.988 Y80.588 E284.84169
G1 X115.281 Y79.88 E284.94153
G1 X78.874 Y116.288 E290.07902
G1 X78.623 Y115.902 E290.12496
G1 X78.271 Y115.476 E290.1801
G1 X114.574 Y79.173 E295.30285
G1 X113.865 Y78.468 E295.40261
G1 X77.627 Y114.706 E300.51619
G1 X77.308 Y114.305 E300.56731
G1 X77.025 Y113.894 E300.61711
G1 X113.115 Y77.804 E305.70979
G1 X112.77 Y77.508 E305.75515
G1 X112.325 Y77.18 E305.81031
G1 X76.604 Y112.901 E310.85093
G1 X76.571 Y112.812 E310.8604
G1 X76.417 Y112.915 E310.87889
G1 X76.22 Y112.575 E310.9181
G1 X75.988 Y112.103 E310.97058
G1 X111.481 Y76.609 E315.97909
G1 X111.047 Y76.338 E316.03015
G1 X110.584 Y76.092 E316.08246
G1 X75.558 Y111.118 E321.02501
G1 X75.427 Y110.798 E321.05951
G1 X75.186 Y110.076 E321.13546
G1 X109.633 Y75.629 E325.9963
G1 X109.353 Y75.505 E326.02686
G1 X108.614 Y75.233 E326.10543
G1 X74.861 Y108.987 E330.86841
G1 X74.64 Y108.232 E330.94691
G1 X74.553 Y107.88 E330.98309
G1 X107.528 Y74.905 E335.63622
G1 X107.232 Y74.823 E335.66687
G1 X106.373 Y74.646 E335.75438
G1 X74.301 Y106.718 E340.28008
G1 X74.205 Y106.159 E340.33668
G1 X74.138 Y105.467 E340.40605
G1 X105.113 Y74.492 E344.77696
G1 X104.127 Y74.44 E344.87548
G1 X103.744 Y74.447 E344.9137
G1 X74.082 Y104.109 E349.09933
G1 X74.134 Y103.044 E349.20572
G1 X74.192 Y102.585 E349.25188
G1 X102.232 Y74.545 E353.20863
G1 X101.099 Y74.725 E353.3231
G1 X100.592 Y74.77 E353.37389
G1 X74.499 Y100.863 E357.05589
